svgs/light/memory.svg

<svg xmlns="http://www.w3.org/2000/svg" viewBox="0 0 576 512"><!-- Font Awesome Pro 6.0.0-alpha2 by @fontawesome - https://fontawesome.com License - https://fontawesome.com/license (Commercial License) --><path d="M576 146.938V128C576 92.654 547.348 64 512 64H64C28.654 64 0 92.654 0 128V146.938C18.6 153.549 32 171.131 32 192S18.6 230.451 0 237.062V416C0 433.674 14.328 448 32 448H544C561.674 448 576 433.674 576 416V237.062C557.4 230.451 544 212.869 544 192S557.4 153.549 576 146.938ZM544 416H496V400C496 391.164 488.838 384 480 384C471.164 384 464 391.164 464 400V416H368V400C368 391.164 360.838 384 352 384C343.164 384 336 391.164 336 400V416H240V400C240 391.164 232.838 384 224 384C215.164 384 208 391.164 208 400V416H112V400C112 391.164 104.838 384 96 384C87.164 384 80 391.164 80 400V416H32V320H544V416ZM544 128.213C524.248 143.053 512 166.545 512 192S524.248 240.947 544 255.785V288H32V255.785C51.754 240.947 64 217.455 64 192S51.754 143.053 32 128.213V128C32 110.355 46.355 96 64 96H512C529.645 96 544 110.355 544 128V128.213ZM160 128C151.156 128 144 135.156 144 144V240C144 248.844 151.156 256 160 256S176 248.844 176 240V144C176 135.156 168.844 128 160 128ZM288 128C279.156 128 272 135.156 272 144V240C272 248.844 279.156 256 288 256S304 248.844 304 240V144C304 135.156 296.844 128 288 128ZM416 128C407.156 128 400 135.156 400 144V240C400 248.844 407.156 256 416 256S432 248.844 432 240V144C432 135.156 424.844 128 416 128Z"/></svg>

<svg xmlns="http://www.w3.org/2000/svg" viewBox="0 0 576 512"><!--! Font Awesome Pro 6.0.0-alpha3 by @fontawesome - https://fontawesome.com License - https://fontawesome.com/license (Commercial License) --><path d="M576 146.9V128c0-35.35-28.65-64-64-64H64C28.65 64 0 92.65 0 128v18.94C18.6 153.5 32 171.1 32 192S18.6 230.5 0 237.1V416c0 17.67 14.33 32 32 32h512c17.67 0 32-14.33 32-32V237.1C557.4 230.5 544 212.9 544 192S557.4 153.5 576 146.9zM544 416h-48v-16c0-8.836-7.162-16-16-16c-8.836 0-16 7.164-16 16V416h-96v-16c0-8.836-7.162-16-16-16c-8.836 0-16 7.164-16 16V416h-96v-16C240 391.2 232.8 384 224 384c-8.836 0-16 7.164-16 16V416h-96v-16C112 391.2 104.8 384 96 384c-8.836 0-16 7.164-16 16V416H32v-96h512V416zM544 128c-19.75 14.84-32 38.54-32 64s12.25 48.95 32 63.79V288H32V255.8C51.75 240.9 64 217.5 64 192S51.75 143.1 32 128.2C32 110.6 46.36 96 64 96h448C529.6 96 544 110.4 544 128zM160 128C151.2 128 144 135.2 144 144v96C144 248.8 151.2 256 160 256s16-7.156 16-16v-96C176 135.2 168.8 128 160 128zM288 128C279.2 128 272 135.2 272 144v96C272 248.8 279.2 256 288 256s16-7.156 16-16v-96C304 135.2 296.8 128 288 128zM416 128c-8.844 0-16 7.156-16 16v96C400 248.8 407.2 256 416 256s16-7.156 16-16v-96C432 135.2 424.8 128 416 128z"/></svg>
